src/assets/images/svg/refresh-button.svg

<svg width="44" height="44" viewBox="0 0 44 44" fill="none" xmlns="http://www.w3.org/2000/svg">
<path d="M39 0H5C2.23858 0 0 2.23858 0 5V39C0 41.7614 2.23858 44 5 44H39C41.7614 44 44 41.7614 44 39V5C44 2.23858 41.7614 0 39 0Z" fill="#B4B8BB" fill-opacity="0.4"/>
<path d="M27.2218 44L7.2218 24L0 31.2218V39C0 41.7614 2.23858 44 5 44H27.2218Z" fill="#AEB5B9" fill-opacity="0.5"/>
<path d="M34.2218 14L44 23.7782V39C44 41.7614 41.7614 44 39 44H27.2218L15.7218 32.5L34.2218 14Z" fill="#AEB5B9" fill-opacity="0.3"/>
<path d="M9 13C11.2091 13 13 11.2091 13 9C13 6.79086 11.2091 5 9 5C6.79086 5 5 6.79086 5 9C5 11.2091 6.79086 13 9 13Z" fill="white" fill-opacity="0.3"/>
</svg>

<svg xmlns="http://www.w3.org/2000/svg" width="44" height="44" fill="none" viewBox="0 0 44 44">
  <defs/>
  <path fill="#B4B8BB" fill-opacity=".4" d="M39 0H5a5 5 0 00-5 5v34a5 5 0 005 5h34a5 5 0 005-5V5a5 5 0 00-5-5z"/>
  <path fill="#AEB5B9" fill-opacity=".5" d="M27.22 44l-20-20L0 31.22V39a5 5 0 005 5h22.22z"/>
  <path fill="#AEB5B9" fill-opacity=".3" d="M34.22 14L44 23.78V39a5 5 0 01-5 5H27.22l-11.5-11.5L34.22 14z"/>
  <path fill="#fff" fill-opacity=".3" d="M9 13a4 4 0 100-8 4 4 0 000 8z"/>
</svg>
